svgs/duotone/folders.svg

<svg xmlns="http://www.w3.org/2000/svg" viewBox="0 0 640 512"><!-- Font Awesome Pro 6.0.0-alpha2 by @fontawesome - https://fontawesome.com License - https://fontawesome.com/license (Commercial License) --><defs><style>.fa-secondary{opacity:.4}</style></defs><path d="M608 144V336C608 362.5 586.5 384 560 384H176C149.5 384 128 362.5 128 336V80C128 53.5 149.5 32 176 32H304L368 96H560C586.5 96 608 117.5 608 144Z" class="fa-secondary"/><path d="M80 400V160C53.49 160 32 181.492 32 208V416C32 451.346 60.654 480 96 480H464C490.51 480 512 458.508 512 432H112C94.326 432 80 417.672 80 400Z" class="fa-primary"/></svg>

<svg xmlns="http://www.w3.org/2000/svg" viewBox="0 0 640 512"><!--! Font Awesome Pro 6.3.0 by @fontawesome - https://fontawesome.com License - https://fontawesome.com/license (Commercial License) Copyright 2023 Fonticons, Inc. --><defs><style>.fa-secondary{opacity:.4}</style></defs><path class="fa-primary" d="M488 480H152C85.83 480 32 426.2 32 360v-240C32 106.8 42.75 96 56 96S80 106.8 80 120v240c0 39.7 32.3 72 72 72h336c13.25 0 24 10.75 24 24S501.3 480 488 480z"/><path class="fa-secondary" d="M608 144v192c0 26.5-21.5 48-48 48h-384c-26.5 0-48-21.5-48-48v-256c0-26.5 21.5-48 48-48H304l64 64h192C586.5 96 608 117.5 608 144z"/></svg>
